X:095
U: ~ = !turn!
%%topmargin 3cm
T:Jackie Coleman's Reel
B:Traditional Irish Fiddle Tunes. Randy Miller and Jack Perron.
Z:Transcribed by Ralph Palmer
R:Reel
M:C|
L:1/8
K:D
dB | AF F2 EFDE | F2 AF BFAF | E2 BE dEBE | ABde fedB |
AF F2 EFDE | F2 AF BFAF | E2 BE dEBE | ABde fd ::
z g | fddc dfag | fd d2 fagf | eA (3.A.A.A eAfA | eA (3.A.A.A efge |
fddc dfag | fddc dfaf | g2 gf gbag | faeg fd d2 :|]
